X: 40935
T: Trip To Birmingham, The
R: reel
M: 4/4
K: Dmajor
|:E|DGGF GABd|~e3g edBA|GFGB dGBG|ABAG EGD^C|
DGGF GABd|e/f/g e^d efga|bg g/f/g ageg|dBAB G3:|
|:B|dggf gfga|bgag edBA|GFGB dGBG|ABAG EDD2|
[1 dggf g3a|bgag edBA|GFGB dGBG|AGFA G3:|
[2 dg g/f/g bg g/f/g|bgag edBA|GFGB dGBG|AGFA G3||

